X:1
T:Title
%%score { 1 | 2 }
L:1/8
M:4/4
K:D
V:1 treble nm="Grand Piano"
V:2 bass 
V:1
 z4 z2[Q:1/4=100] D2 | F3 E E2 D2 | [DFA]3 [CGA] [DA]2 [CGA]2 | [Fd]2 [GB]2 [FA]3 F | %4
[M:7/8] A2 F2 [CE]3 |[M:1/8] D |[M:4/4] F3 E E2 D2 | [DFA]2 [CGA]2 [DA]2 [DFB]2 | c2 c2 d2 c2 | %9
[M:7/8] c3 B [CA]3 |[M:1/4] [Fd]2 |[M:4/4] [Gd]3 [Gc] [EGc]2 [CEG]2 | [CGB]2 [CGB]2 [CGB]2 [Bd]2 | %13
 [EAc]2 [EGB]2 [CEG]2 [CGB]2 |[M:3/4] [GB]3 [FA] [FA]2 |[M:1/4] [FA]2 | %16
[M:4/4] [Fd]3 [Gc] [Ad]2 [DFA]2 | [DGB]2 [^DAB]2 [E^Ge]2 [EAc]2 | [DAd]2 [DGB]2 [DFA]2 [A,DF]2 | %19
[M:7/8] [G,CE]3 [A,CF][K:bass] [F,D]3 |] %20
V:2
 z4 z2 [D,F,]2 | [D,A,D]3 [D,G,D] [D,G,D]2 [D,F,]2 | D,3 E, F,2 E,2 | %3
 [D,A,]2 [D,D]2 [D,D]3 [D,A,D] |[M:7/8] [F,A,D]2 [D,A,D]2 [A,,A,]3 |[M:1/8] [D,F,] | %6
[M:4/4] [D,A,D]3 [D,G,D] [D,G,D]2 [D,F,]2 | D,2 E,2 F,2 D,2 | [E,A,E]2 [E,A,E]2 [E,B,E]2 [E,A,E]2 | %9
[M:7/8] [E,^G,E]3 [E,G,D] [A,,A,]3 |[M:1/4] [D,A,]2 |[M:4/4] [E,A,]3 [E,A,] A,2 A,2 | %12
 A,,2 A,,2 A,,2 [A,,A,]2 | A,2 A,2 A,2 A,,2 |[M:3/4] [D,D]3 [D,D] [D,D]2 |[M:1/4] [D,D]2 | %16
[M:4/4] [D,A,]3 [E,A,] [F,A,]2 D,2 | G,2 F,2 E,2 A,G, | F,2 G,2 D,2 D,2 |[M:7/8] A,,3 A,, D,3 |] %20

